X:1
T:The True Shepherd
T:The True Shepherd
T:William James Kirkpatrick, 1888
T:Frederick William Faber, 1849
T:Public Domain Courtesy of the Cyber Hymnal™
T:Public Domain Courtesy of the Cyber Hymnal™
C:William James Kirkpatrick, 1888
Z:Public Domain
Z:Courtesy of the Cyber Hymnal™
%%score ( 1 2 ) ( 3 4 )
L:1/8
Q:1/4=110
M:2/2
K:Ab
V:1 treble 
V:2 treble 
V:3 bass 
V:4 bass 
V:1
 (EE) | [CE]2 [CA]2 [CA]3 [DB] | [CA]2 [B,G]4 (EE) | [DE]2 [DB]2 [DB]3 [Ec] | %4
w: 1.~I~was *|wan- der- ing and|wear- y When~my *|Sav- ior came un-|
w: 2.~At *|first I would not|heark- en, And *|put off till the|
w: 3.~At *|last I stopped to|list- en, His *|voice could not de-|
w: 4.~He *|took me on His|should- er, And *|ten- der- ly He|
w: 5.~I *|thought His love would|weak- en, As *|more and more He|
w: 6.~Let~us *|do, then dear- est|bro- thers, What~will *|best and long- est|
 [DB]2 [CA]4 ([CE][CE]) | [CE]2 [Ec]2 [Ec]2 [_Ge]2 | [Fe]2 [Fd]4 ([Fc][FB]) | %7
w: to me; For~the *|ways of sin grew|drear- y, And~the *|
w: mor- row; But *|life be- gan to|dark- en, And *|
w: ceive me; I *|saw His kind eyes|glist- en, So *|
w: kissed me; He *|bade my love be|bold- er, And *|
w: knew me; But~it *|burn- eth like a|bea- con, And~its *|
w: please us. Follow *|not the ways of|o- thers, But *|
 [EA]2 [EA]2 [EA]2 [Ec]2 | [Ec]2 [EB]4 [=Ec]!fermata![EB] | [CA]2 [CA]2 [DA]2 [DA]2 | %10
w: world has ceased to|woo me; And I|thought I heard Him|
w: I was sick with|sor- row; Still I|thought I heard Him|
w: anx- ious to re-|lieve me, I was|sure I heard Him|
w: said how He had|missed me; Then I|heard Him sweet- ly|
w: light and heat go|thro’ me. And I|ev- er hear Him|
w: trust our- selves to|Je- sus. We shall|ev- er hear Him|
 [CA]6 [Ec][Ec] | [EB]2 [EB]2 [=DB]2 [DB]2 | [EB]4 ||"^Refrain" (!fermata!e3 d) | %14
w: say, As He|came a- long His|way,||
w: say, As He|came a- long His|way,||
w: say, As He|came a- long His|way,|O *|
w: say, As He|went a- long His|way,||
w: say, As He|goes a- long His|way,||
w: say, As He|goes a- long His|way,||
 [Ac]2 [Ac]2 [Ac]2 [EB]2 | [EB]2 [EA]4 [EA]2 | [Gd]3 [Gd] [Gd]2 [Ac]2 | [Ec]2 [EB]4"^riten." (cd) | %18
w: ||||
w: ||||
w: wand- ’ring souls, come|near Me, My|sheep would nev- er|fear Me, My *|
w: ||||
w: ||||
w: ||||
"^ad lib." [Ee]3 [Ee] [Ee]2 [_Gc]2 | [Fe]2 !fermata![Fd]4 [FB]2 | [Ec]3 [Ec] [Ec]2 [DB]2 | %21
w: |||
w: |||
w: sheep would nev- er|fear Me: I|am the Shep- herd|
w: |||
w: |||
w: |||
 !fermata![CA]6 |] %22
w: |
w: |
w: true.|
w: |
w: |
w: |
V:2
 x2 | x8 | x8 | x8 | x8 | x8 | x8 | x8 | x8 | x8 | x8 | x8 | x4 || G4 | x8 | x8 | x8 | x6 E2 | x8 | %19
 x8 | x8 | x6 |] %22
V:3
 (E,E,) | [A,,E,]2 [A,,E,]2 [A,,E,]3 [A,,E,] | [A,,E,]2 E,4 ([E,G,][E,G,]) | %3
 [E,G,]2 [E,G,]2 [E,G,]3 [E,A,] | [E,G,]2 A,4 x2 | A,2 A,2 A,2 [C,A,]2 | %6
 [D,A,]2 [D,A,]4 ([D,A,][D,A,]) | [C,A,]2 [C,A,]2 [C,A,]2 [A,,A,]2 | %8
 [E,A,]2 [E,G,]4 !fermata![C,G,][C,G,] | [F,A,]2 [F,A,]2 [D,F,]2 [D,F,]2 | %10
 [A,,E,]6 [A,,A,][A,,A,] | [E,G,]2 [E,G,]2 [B,,F,]2 [B,,A,]2 | [E,G,]4 || (B,3 E) | %14
 [A,E]2 [A,E]2 [A,E]2 [A,D]2 | [A,D]2 [A,C]4 [A,C]2 | [E,B,]3 [E,B,] [E,B,]2 [E,A,]2 | %17
 [E,A,]2 [E,G,]4 (A,B,) | [A,C]3 [A,C] [A,C]2 A,2 | [D,A,]2 !fermata![D,A,]4 [=D,A,]2 | %20
 [E,A,]3 [E,A,] [E,A,]2 [E,G,]2 | !fermata![A,,E,A,]6 |] %22
V:4
 x2 | x8 | x2 E,4 x2 | x8 | x2 A,4 (A,A,) | A,2 A,2 A,2 x2 | x8 | x8 | x8 | x8 | x8 | x8 | x4 || %13
 E,4 | x8 | x8 | x8 | x6 A,2 | x6 A,2 | x8 | x8 | x6 |] %22

